docs/.gitbook/assets/icon-terminal-16@light.svg

<svg width="32" height="32" viewBox="0 0 16 16" fill="none" xmlns="http://www.w3.org/2000/svg">
<rect x="0" y="0" width="16" height="16" fill="#fff"/>
<path fill-rule="evenodd" clip-rule="evenodd" d="M1 3.75C1 2.23122 2.23122 1 3.75 1H12.25C13.7688 1 15 2.23122 15 3.75V12.25C15 13.7688 13.7688 15 12.25 15H3.75C2.23122 15 1 13.7688 1 12.25V3.75ZM3.75 2.5C3.05964 2.5 2.5 3.05964 2.5 3.75V12.25C2.5 12.9404 3.05964 13.5 3.75 13.5H12.25C12.9404 13.5 13.5 12.9404 13.5 12.25V3.75C13.5 3.05964 12.9404 2.5 12.25 2.5H3.75ZM4.19253 6.24828C4.46962 5.94039 4.94384 5.91544 5.25172 6.19253L7.75172 8.44253C7.90976 8.58476 8 8.78738 8 9C8 9.21262 7.90976 9.41524 7.75172 9.55747L5.25172 11.8075C4.94384 12.0846 4.46962 12.0596 4.19253 11.7517C3.91544 11.4438 3.94039 10.9696 4.24828 10.6925L6.12886 9L4.24828 7.30747C3.94039 7.03038 3.91544 6.55616 4.19253 6.24828Z" fill="#000"/>
</svg>

<svg xmlns="http://www.w3.org/2000/svg" width="32" height="32" fill="none" viewBox="0 0 16 16"><path fill="#fff" d="M0 0h16v16H0z"/><path fill="#000" fill-rule="evenodd" d="M1 3.75A2.75 2.75 0 0 1 3.75 1h8.5A2.75 2.75 0 0 1 15 3.75v8.5A2.75 2.75 0 0 1 12.25 15h-8.5A2.75 2.75 0 0 1 1 12.25zM3.75 2.5c-.69 0-1.25.56-1.25 1.25v8.5c0 .69.56 1.25 1.25 1.25h8.5c.69 0 1.25-.56 1.25-1.25v-8.5c0-.69-.56-1.25-1.25-1.25zm.443 3.748a.75.75 0 0 1 1.059-.055l2.5 2.25a.75.75 0 0 1 0 1.114l-2.5 2.25a.75.75 0 1 1-1.004-1.114L6.128 9l-1.88-1.693a.75.75 0 0 1-.055-1.059" clip-rule="evenodd"/></svg>
